icons/bank.svg

<?xml version="1.0" encoding="UTF-8"?><svg id="uuid-66ebd242-d3e6-47a9-9fa2-b8d2cefb16bc" xmlns="http://www.w3.org/2000/svg" viewBox="0 0 50 50"><path d="M48.37,44.33h-2.97v-3.24c0-.28-.22-.5-.5-.5h-2.4V21.09h2.4c.28,0,.5-.22,.5-.5v-3.24h2.97c.22,0,.41-.14,.48-.35,.06-.21-.02-.44-.2-.56L25.03,.51c-.17-.11-.39-.11-.56,0L.85,16.43c-.18,.12-.26,.35-.2,.56,.06,.21,.26,.35,.48,.35h2.97v3.24c0,.28,.22,.5,.5,.5h2.4v19.5h-2.4c-.28,0-.5,.22-.5,.5v3.24H1.13c-.28,0-.5,.22-.5,.5v3.74c0,.28,.22,.5,.5,.5H48.37c.28,0,.5-.22,.5-.5v-3.74c0-.28-.22-.5-.5-.5Zm-6.87-3.74h-4V21.14h4v19.45Zm-5,0h-3.83V21.09h3.83v19.5ZM17.83,21.14h4v19.45h-4V21.14Zm5-.05h3.83v19.5h-3.83V21.09Zm-17.73-3.74H44.39v2.74H5.11v-2.74Zm22.56,3.8h4v19.45h-4V21.14ZM24.75,1.53l21.98,14.82H2.77L24.75,1.53Zm-7.92,19.56v19.5h-3.83V21.09h3.83Zm-8.83,.05h4v19.45h-4V21.14Zm-2.9,20.45H44.39v2.74H5.11v-2.74Zm42.76,6.49H1.63v-2.74H47.87v2.74Z"/><path d="M24.75,14.23c1.99,0,3.6-1.52,3.6-3.4s-1.62-3.4-3.6-3.4-3.6,1.52-3.6,3.4,1.62,3.4,3.6,3.4Zm0-5.8c1.44,0,2.6,1.08,2.6,2.4s-1.17,2.4-2.6,2.4-2.6-1.08-2.6-2.4,1.17-2.4,2.6-2.4Z"/></svg>

<svg id="fa23cf0c-0217-4a87-bc8c-31999d15047d" data-name="ICONS" xmlns="http://www.w3.org/2000/svg" viewBox="0 0 50 50"><path d="M48.37,44.33h-3V41.09a.5.5,0,0,0-.5-.5H42.5V21.09h2.39a.5.5,0,0,0,.5-.5V17.34h3a.48.48,0,0,0,.47-.35.49.49,0,0,0-.19-.56L25,.51a.48.48,0,0,0-.56,0L.85,16.43A.49.49,0,0,0,.66,17a.48.48,0,0,0,.47.35h3v3.25a.5.5,0,0,0,.5.5H7v19.5H4.61a.5.5,0,0,0-.5.5v3.24h-3a.51.51,0,0,0-.5.5v3.75a.51.51,0,0,0,.5.5H48.37a.51.51,0,0,0,.5-.5V44.83A.51.51,0,0,0,48.37,44.33ZM41.5,40.59h-4V21.14h4Zm-5,0H32.67V21.09h3.82ZM17.83,21.14h4V40.59h-4Zm5-.05h3.82v19.5H22.84ZM5.11,17.34H44.39v2.75H5.11Zm22.55,3.8h4V40.59h-4ZM24.75,1.53l22,14.81h-44ZM16.83,21.09v19.5H13V21.09ZM8,21.14h4V40.59H8ZM5.11,41.59H44.39v2.74H5.11Zm42.76,6.49H1.63V45.33H47.87Z"/><path d="M24.75,14.23a3.5,3.5,0,0,0,3.6-3.4,3.61,3.61,0,0,0-7.2,0A3.5,3.5,0,0,0,24.75,14.23Zm0-5.8a2.51,2.51,0,0,1,2.6,2.4,2.61,2.61,0,0,1-5.2,0A2.51,2.51,0,0,1,24.75,8.43Z"/></svg>
